X:5
T:Belo lice liubam jas
O:Macedoine (Mer Egee)
M:4/4
L:1/8
Q:1/4=100
K:C
e/f/g/a/ aa aa/g/ g/a/g/f/ | ee/d/ d/e/d/c/ c/d/e/f/ g2 |
e/f/g/a/ aa aa/g/ g/a/g/f/ | ee/d/ c/d/e/f/ g/f/e/d/ c2 ||
M:2/4
L:1/8
Q:1/4=100
K:C
cc ce/f/ | g/f/e/d/ e/d/d/c/ | c3 g |
cc ce/f/ | g/f/e/d/ e/d/d/c/ | c4 |
gg gg/a/ | gf e d/c/ | e>d e/d/d/c/ |
c3 c/d/ | e>d e/d/d/c/ | c4 |
|: f2 {g} a2 | {g} d3 c | cc ce/f/ |
e>d e/d/d/c/ | c4 :|
